web/themes/custom/surf_main/images/icons/ui-icon-star.svg

<svg fill="none" height="28" viewBox="0 0 28 28" width="28" xmlns="http://www.w3.org/2000/svg"><path d="m14 3.11111 2.9441 6.83661 7.4118.68738-5.5922 4.9127 1.6366 7.2615-6.4003-3.8004-6.40033 3.8004 1.63659-7.2615-5.59221-4.9127 7.41175-.68738z" stroke="#222" stroke-width="1.5"/></svg>

<svg width="28" height="28" viewBox="0 0 28 28" fill="none" xmlns="http://www.w3.org/2000/svg">
<path d="M14 3.11111L16.9441 9.94772L24.3559 10.6351L18.7637 15.5478L20.4003 22.8093L14 19.0089L7.59967 22.8093L9.23626 15.5478L3.64405 10.6351L11.0558 9.94772L14 3.11111Z" stroke="#222222" stroke-width="1.5"/>
</svg>
